src/svgstore/close.svg

<svg viewBox="0 0 39 39" xmlns="http://www.w3.org/2000/svg"><path d="M22.582 19.812l15.09-15.09a2.4 2.4 0 000-3.394 2.395 2.395 0 00-3.391 0l-15.093 15.09-15.09-15.09A2.4 2.4 0 10.703 4.722l15.094 15.09L.703 34.902a2.402 2.402 0 003.395 3.395l15.09-15.09 15.093 15.09a2.394 2.394 0 003.391 0 2.402 2.402 0 000-3.395l-15.09-15.09z" fill="currentColor" fill-rule="evenodd"/></svg>

<?xml version="1.0" encoding="UTF-8"?>
<svg width="39px" height="39px" viewBox="0 0 39 39" version="1.1" xmlns="http://www.w3.org/2000/svg" xmlns:xlink="http://www.w3.org/1999/xlink" xmlns:sketch="http://www.bohemiancoding.com/sketch/ns">
  <!-- Generator: Sketch 3.3.3 (12081) - http://www.bohemiancoding.com/sketch -->
  <title>Untitled</title>
  <desc>Created with Sketch.</desc>
  <defs></defs>
  <g id="Page-1" stroke="none" stroke-width="1" fill="none" fill-rule="evenodd" sketch:type="MSPage">
      <path d="M22.582,19.812 L37.672,4.722 C38.609,3.785 38.609,2.265 37.672,1.328 C36.734,0.39 35.219,0.39 34.281,1.328 L19.188,16.418 L4.098,1.328 C3.16,0.39 1.641,0.39 0.703,1.328 C-0.234,2.265 -0.234,3.785 0.703,4.722 L15.797,19.812 L0.703,34.902 C-0.234,35.84 -0.234,37.359 0.703,38.297 C1.172,38.765 1.785,39 2.398,39 C3.012,39 3.629,38.765 4.098,38.297 L19.188,23.207 L34.281,38.297 C34.75,38.765 35.363,39 35.977,39 C36.59,39 37.203,38.765 37.672,38.297 C38.609,37.359 38.609,35.84 37.672,34.902 L22.582,19.812 Z" id="Fill-1" fill="#000000" sketch:type="MSShapeGroup"></path>
  </g>
</svg>
